!!!COM: Music21
!!!OTL: No Corpus de Pontevedra
!!!OMV: pezas_pasacorredoiras_no-corpus-de-pontevedra_no-corpus-de-pontevedra-partitura.musicxml
**kern
*I"Bagpipes
*I'Bag
*clefG^2
*k[]
*M2/4
=1
!LO:TX:a:t=Maestoso
*MM72
!LO:TX:a:t=[quarter]=72
4.r
8gg
=||
16eeLL
16ee
16ee
16ccJJ
16eeLL
16ee
16ee
16ccJJ
=
16eeLL
16cc
16ee
16ffJJ
16ggLL
16ee
16gg
16eeJJ
=
8ggL
16ffL
16eeJJ
8ddL
16ddL
16bJJ
=
8.ddL
16aaJk
16ggLL
16ff
16ee
16ddJJ
=
8ccL
16ccL
16ggJJ
16eeLL
16ee
16ee
16ccJJ
!!linebreak:original
=
16eeLL
16cc
16ee
16ffJJ
16ggLL
16aa
16gg
16eeJJ
=
16ffLL
16aa
16ff
16ddJJ
16eeLL
16gg
16ee
16ccJJ
=
16eeLL
16ff
16dd
16bJJ
[4cc
=||
4cc]
16eeLL
16ff
16ff
16ddJJ
=
16eeLL
16ff
16ff
16ddJJ
8eeL
16eeL
16ccJJ
=
16ddLL
16ee
16ff
16ddJJ
16aaLL
16gg
16ee
16ccJJ
=
16eeLL
16ff
16dd
16bJJ
8ddL
[8ccJ
!!linebreak:original
=
8ccL]
8ggJ
8cccL
8ggJ
=
8eeL
16ccL
16eeJJ
16aaLL
16gg
16ff
16eeJJ
=
8.ddL
16eeJk
16ffLL
16ee
16ff
16ddJJ
=
16ddLL
16b
16dd
16aaJJ
16ggLL
16ff
16ee
16ddJJ
=
8.ccL
16ggJk
8cccL
8ggJ
=
8eeL
16ccL
16eeJJ
16aaLL
16gg
16ff
16eeJJ
=
16ddLL
16ee
16ff
16ggJJ
16cccLL
16gg
16ee
16ccJJ
!!linebreak:original
=
16eeLL
16ff
16dd
16bJJ
[4cc
=||
8ccL]
8ggJ
8eeL
16eeL
16ccJJ
=
8eeL
16eeL
16ccJJ
16eeLL
16cc
16ee
16ffJJ
=
16ggLL
16ee
16gg
16eeJJ
8ggL
16ffL
16eeJJ
=
8.ddL
16bJk
16ccLL
16dd
16ee
16ffJJ
=
16ggLL
16ff
16ee
16ddJJ
8ccL
8ggJ
=
8eeL
16eeL
16ccJJ
16eeLL
16cc
16ee
16ffJJ
!!linebreak:original
=
16ggLL
16aa
16gg
16eeJJ
16ffLL
16aa
16ff
16ddJJ
=
16eeLL
16gg
16ee
16ccJJ
16eeLL
16ff
16dd
16bJJ
=
2cc
=||
16eeLL
16ff
16ff
16ddJJ
16eeLL
16ff
16ff
16ddJJ
=
8eeL
16eeL
16ccJJ
16ddLL
16ee
16ff
16ddJJ
=
16aaLL
16gg
16ee
16ccJJ
16eeLL
16ff
16dd
16bJJ
=
8dd
4cc
8gg
!!linebreak:original
=
8cccL
8ggJ
8eeL
16ccL
16eeJJ
=
16aaLL
16gg
16ff
16eeJJ
8ddL
16ddL
16eeJJ
=
16ffLL
16ee
16ff
16ddJJ
16ddLL
16b
16dd
16aaJJ
=
16ggLL
16ff
16ee
16ddJJ
8ccL
16ccL
16ggJJ
=
8cccL
8ggJ
8eeL
16ccL
16eeJJ
=
16aaLL
16gg
16ff
16eeJJ
16ddLL
16ee
16ff
16ggJJ
!!linebreak:original
=
16cccLL
16gg
16ee
16ccJJ
16eeLL
16ff
16dd
16bJJ
=||
4.cc
8gg
=||
8cc
8r
4r
==
*-
